X:1
T:The Rout it is come for the Blues
B:Baring-Gould, 1895, A Garland of Country Song, London
Z:S Baring-Gould
F:http://www.folkinfo.org/songs
Q:3/8=96
M:6/8     %Meter
L:1/8     %
K:C
G |c B A G F E |D C B, (CE) G |c B A A f d |(c3B2)
w:As I was a-walk-ing on Scar-bor-ough sands,_ Some dain-ty fine sport for to view_
 d |d c B d c A |A G G HG2 
w:The lass-es were cry-ing and wring-ing their hands_
G3/4 G// |c e c d f d | B3/2 A/ B Hc2
w:O the Rout it is come for the Blues, for the Blues,
 B3/4 A// |G A F E D C |G2 C HA2 
w: O the Rout it is come for the Blues, the Blues, 
G3/4G// |A f d B3/2 A/ B | c3-c2 |]
w:O the Rout it is come for the Blues_  